packages/tokens/icons/coveoIndex/size24Px.svg

<svg viewBox="0 0 24 24" fill="none" xmlns="http://www.w3.org/2000/svg" width="1em" height="1em"><rect x="7.05037" y="12" width="7" height="7" rx="0.5" transform="rotate(-45 7.05037 12)" stroke="currentColor"/><path d="M6.5 5C6.5 5.82843 5.82843 6.5 5 6.5C4.17157 6.5 3.5 5.82843 3.5 5C3.5 4.17157 4.17157 3.5 5 3.5C5.82843 3.5 6.5 4.17157 6.5 5ZM6.5 19C6.5 19.8284 5.82843 20.5 5 20.5C4.17157 20.5 3.5 19.8284 3.5 19C3.5 18.1716 4.17157 17.5 5 17.5C5.82843 17.5 6.5 18.1716 6.5 19ZM20.5 5C20.5 5.82843 19.8284 6.5 19 6.5C18.1716 6.5 17.5 5.82843 17.5 5C17.5 4.17157 18.1716 3.5 19 3.5C19.8284 3.5 20.5 4.17157 20.5 5ZM13 3.5C13 4.05228 12.5523 4.5 12 4.5C11.4477 4.5 11 4.05228 11 3.5C11 2.94772 11.4477 2.5 12 2.5C12.5523 2.5 13 2.94772 13 3.5ZM4.5 12C4.5 12.5523 4.05228 13 3.5 13C2.94772 13 2.5 12.5523 2.5 12C2.5 11.4477 2.94772 11 3.5 11C4.05228 11 4.5 11.4477 4.5 12ZM21.5 12C21.5 12.5523 21.0523 13 20.5 13C19.9477 13 19.5 12.5523 19.5 12C19.5 11.4477 19.9477 11 20.5 11C21.0523 11 21.5 11.4477 21.5 12ZM13 20.5C13 21.0523 12.5523 21.5 12 21.5C11.4477 21.5 11 21.0523 11 20.5C11 19.9477 11.4477 19.5 12 19.5C12.5523 19.5 13 19.9477 13 20.5ZM20.5 19C20.5 19.8284 19.8284 20.5 19 20.5C18.1716 20.5 17.5 19.8284 17.5 19C17.5 18.1716 18.1716 17.5 19 17.5C19.8284 17.5 20.5 18.1716 20.5 19Z" stroke="currentColor"/><path d="M14.8536 14.1464C14.6583 13.9512 14.3417 13.9512 14.1464 14.1464C13.9512 14.3417 13.9512 14.6583 14.1464 14.8536L14.8536 14.1464ZM9.14645 9.85355C9.34171 10.0488 9.65829 10.0488 9.85355 9.85355C10.0488 9.65829 10.0488 9.34171 9.85355 9.14645L9.14645 9.85355ZM12.5 20V16.5H11.5L11.5 20H12.5ZM12.5 7.5V4L11.5 4V7.5H12.5ZM7 11.5L4 11.5L4 12.5L7 12.5V11.5ZM20 11.5L17 11.5V12.5L20 12.5V11.5ZM14.1464 14.8536L17.6464 18.3536L18.3536 17.6464L14.8536 14.1464L14.1464 14.8536ZM5.64645 6.35355L9.14645 9.85355L9.85355 9.14645L6.35355 5.64645L5.64645 6.35355ZM9.14645 14.1464L5.64645 17.6464L6.35355 18.3536L9.85355 14.8536L9.14645 14.1464ZM17.6464 5.64645L14.1464 9.14645L14.8536 9.85355L18.3536 6.35355L17.6464 5.64645Z" fill="currentColor"/></svg>

<svg xmlns="http://www.w3.org/2000/svg" fill="none" viewBox="0 0 24 24" width="1em" height="1em"><rect width="7" height="7" x="7.05" y="12" stroke="currentColor" rx=".5" transform="rotate(-45 7.05 12)"/><path stroke="currentColor" d="M6.5 5a1.5 1.5 0 1 1-3 0 1.5 1.5 0 0 1 3 0Zm0 14a1.5 1.5 0 1 1-3 0 1.5 1.5 0 0 1 3 0Zm14-14a1.5 1.5 0 1 1-3 0 1.5 1.5 0 0 1 3 0ZM13 3.5a1 1 0 1 1-2 0 1 1 0 0 1 2 0ZM4.5 12a1 1 0 1 1-2 0 1 1 0 0 1 2 0Zm17 0a1 1 0 1 1-2 0 1 1 0 0 1 2 0ZM13 20.5a1 1 0 1 1-2 0 1 1 0 0 1 2 0Zm7.5-1.5a1.5 1.5 0 1 1-3 0 1.5 1.5 0 0 1 3 0Z"/><path fill="currentColor" d="M14.854 14.146a.5.5 0 0 0-.708.708l.708-.708ZM9.146 9.854a.5.5 0 0 0 .708-.708l-.708.708ZM12.5 20v-3.5h-1V20h1Zm0-12.5V4h-1v3.5h1Zm-5.5 4H4v1h3v-1Zm13 0h-3v1h3v-1Zm-5.854 3.354 3.5 3.5.708-.708-3.5-3.5-.708.708Zm-8.5-8.5 3.5 3.5.708-.708-3.5-3.5-.708.708Zm3.5 7.792-3.5 3.5.708.708 3.5-3.5-.708-.708Zm8.5-8.5-3.5 3.5.708.708 3.5-3.5-.708-.708Z"/></svg>
